libs/ui/packages/crypto-icons/src/svg/GXS.svg

<svg width="24" height="24" viewBox="0 0 24 24" fill="none">
<path d="M5.26459 5.27035C6.21709 4.2751 7.95709 4.23535 8.94034 5.20285C9.96784 6.20785 10.9848 7.22185 11.9913 8.2456C13.0623 7.22785 14.0643 6.14185 15.1398 5.1286C16.1628 4.2046 17.9028 4.31635 18.8111 5.35135C19.7426 6.32785 19.7276 8.0311 18.7608 8.9791C17.7656 9.99235 16.7576 10.9906 15.7533 11.9956C16.7793 13.0523 17.8481 14.0678 18.8658 15.1381C19.7778 16.1378 19.6908 17.8418 18.7016 18.7606C17.7288 19.7431 15.9843 19.7461 15.0131 18.7591C14.0028 17.7676 13.0143 16.7521 12.0108 15.7561C10.9398 16.7866 9.91834 17.8681 8.83609 18.8881C7.79959 19.8076 6.05209 19.6703 5.15959 18.6151C4.25959 17.6408 4.28209 15.9811 5.21959 15.0376C6.10071 14.1355 6.99227 13.2437 7.89409 12.3623L9.02434 13.4911C8.14234 14.4016 7.21459 15.2731 6.34609 16.1971C5.76034 16.7971 6.27634 17.9161 7.09909 17.9026C7.59784 17.9468 7.94209 17.5336 8.26609 17.2216C9.12634 16.3456 9.99934 15.4853 10.8596 14.6093C8.98459 12.7178 7.07959 10.8526 5.21359 8.95285C4.24009 7.97185 4.27084 6.22285 5.26609 5.27035H5.26459ZM6.35434 7.81285C7.34659 8.84785 8.37709 9.8461 9.38734 10.8638C9.87484 10.3703 10.3653 9.87985 10.8588 9.3916C9.88159 8.40685 8.90809 7.41535 7.91734 6.4441C7.60159 6.10285 7.06159 5.9761 6.64984 6.2206C6.07684 6.4981 5.89609 7.3501 6.35359 7.81285H6.35434ZM16.0593 6.47035C14.1948 8.30035 12.3678 10.1693 10.5131 12.0083C11.0133 12.4936 11.5121 12.9803 12.0003 13.4783C12.3746 13.1093 12.7466 12.7358 13.1193 12.3623C13.4958 12.7381 13.8701 13.1161 14.2496 13.4896C13.8813 13.8646 13.5108 14.2366 13.1366 14.6071C14.1423 15.6188 15.1286 16.6493 16.1673 17.6281C16.6946 18.1831 17.7176 17.8463 17.8698 17.1151C18.0333 16.5976 17.6613 16.1498 17.3103 15.8243C15.6578 14.1797 14.0088 12.5314 12.3633 10.8796C12.7401 10.5038 13.1153 10.1266 13.4891 9.74785C13.8641 10.1213 14.2383 10.4948 14.6216 10.8623C15.6078 9.8401 16.6533 8.87485 17.6246 7.83685C18.1143 7.36135 17.9186 6.4501 17.2931 6.19285C16.8731 5.9761 16.3608 6.1291 16.0586 6.47035H16.0593Z" fill="#35A5F3"/>
</svg>

<svg width="24" height="24" viewBox="0 0 24 24" fill="none"><path fill="#35a5f3" d="M5.265 5.27c.952-.995 2.692-1.035 3.675-.067a220 220 0 0 1 3.051 3.043c1.071-1.018 2.073-2.104 3.149-3.117 1.023-.924 2.763-.813 3.671.222.932.977.917 2.68-.05 3.628-.995 1.013-2.003 2.012-3.008 3.017 1.026 1.056 2.095 2.072 3.113 3.142.912 1 .825 2.704-.164 3.623-.973.982-2.718.985-3.689-.002-1.01-.991-1.999-2.007-3.002-3.003-1.071 1.03-2.093 2.112-3.175 3.132-1.036.92-2.784.782-3.676-.273-.9-.974-.878-2.634.06-3.577a163 163 0 0 1 2.674-2.676l1.13 1.13c-.882.91-1.81 1.781-2.678 2.705-.586.6-.07 1.72.753 1.706.499.044.843-.37 1.167-.681.86-.876 1.733-1.737 2.594-2.613-1.875-1.891-3.78-3.756-5.646-5.656-.974-.981-.943-2.73.052-3.683zm1.09 2.543c.992 1.035 2.022 2.033 3.032 3.05q.731-.74 1.472-1.471c-.977-.985-1.95-1.977-2.942-2.948-.315-.341-.855-.468-1.267-.223-.573.277-.754 1.13-.296 1.592m9.704-1.343c-1.864 1.83-3.691 3.7-5.546 5.538.5.486 1 .972 1.487 1.47q.562-.554 1.12-1.116.562.566 1.13 1.128-.554.562-1.113 1.117c1.005 1.012 1.992 2.042 3.03 3.021.528.555 1.55.218 1.703-.513.163-.517-.209-.965-.56-1.29a1624 1624 0 0 1-4.947-4.945q.565-.564 1.126-1.132.56.561 1.133 1.114c.986-1.022 2.031-1.987 3.003-3.025.49-.476.294-1.387-.332-1.644-.42-.217-.932-.064-1.234.277"/></svg>
